X:1534
T:Dick Gossip
O:england
M:4/4
L:1/8
C:Trad
R:Reel
K:D
ef | gB ~B2 gBaB | gB ~B2 gfed | cAeA fAeA | cAef gfef | gB ~B2 gBaB | g
B ~B2 gfed | cdef gfec | dfec d2 :|
DE | F2 AF GFED | F2 AF GFED | E2 EF GFED | E2 EF GFED | F2 AF GFED | F2
AF GFED | cdef gfec | dfec d2 :|
